X:33
T: Sieben Straeuss
N: D0034
O: Europa, Mitteleuropa, Lothringen, Weiler
N: Inzipit = Variante zum Lied
R: Ballade, vergebliche Werbung
M: 3/4
L: 1/8
K: D
A2A2G2 | =F3GA2 | AG=F2E2- | E6
GGGGA2 | D3E=F2 | E2D2=C2- | C4
=C2 | =F4G2 | A4G=F | E6 | D6

